X:7124
T:the New Queen of Hearts
O:england
M:6/8
A:North-West
R:Jig
K:A
e2d cAc| dfd Bcd| ecA ecA| Bcd dcB|\
e2d cAc| dfd Bcd| e2E EFG| A3 A3::
a2a gec| f2f ecA| d2B c2A| Bcd dcB|\
e2d cAc| dfd Bcd| e2E EFG| A3 A3:|
